storage/app/icons/phosphoricons/light/clipboard-light.svg

<svg xmlns="http://www.w3.org/2000/svg" fill="currentColor" viewBox="0 0 256 256"><path d="M200 34h-37.17a45.91 45.91 0 0 0-69.66 0H56a14 14 0 0 0-14 14v168a14 14 0 0 0 14 14h144a14 14 0 0 0 14-14V48a14 14 0 0 0-14-14m-72-4a34 34 0 0 1 34 34v2H94v-2a34 34 0 0 1 34-34m74 186a2 2 0 0 1-2 2H56a2 2 0 0 1-2-2V48a2 2 0 0 1 2-2h29.67A45.8 45.8 0 0 0 82 64v8a6 6 0 0 0 6 6h80a6 6 0 0 0 6-6v-8a45.8 45.8 0 0 0-3.67-18H200a2 2 0 0 1 2 2Z"/></svg>

<svg xmlns="http://www.w3.org/2000/svg" viewBox="0 0 256 256" fill="currentColor"><path d="M200,34H162.83a45.91,45.91,0,0,0-69.66,0H56A14,14,0,0,0,42,48V216a14,14,0,0,0,14,14H200a14,14,0,0,0,14-14V48A14,14,0,0,0,200,34Zm-72-4a34,34,0,0,1,34,34v2H94V64A34,34,0,0,1,128,30Zm74,186a2,2,0,0,1-2,2H56a2,2,0,0,1-2-2V48a2,2,0,0,1,2-2H85.67A45.77,45.77,0,0,0,82,64v8a6,6,0,0,0,6,6h80a6,6,0,0,0,6-6V64a45.77,45.77,0,0,0-3.67-18H200a2,2,0,0,1,2,2Z"/></svg>
